X:57
T:Sailors Dance. JJo.057
T:Fair Quaker of Deal. JJo.057
B:J.Johnson Choice Collection Vol 8 1758
Z:vmp.Simon Wilson 2013 www.village-music-project.org.uk
Z:Dance added by John Chambers 2017
N:Deleted duplicate "back" in the dance description.
M:2/4
L:1/8
%Q:1/2=75
K:G
|:\
Ggfg | Ggfg | a/g/f/e/ dc | B2A2 |\
Ggfg | Ggfg | {c}BA/G/ {c}BA/G/ | G2!fermata!G2 :|
|:\
bb2a/g/ | ad2d | (^cd)(gf) | (^cd)(ba) | (^cd)(gf) |\
(^cd)(ba) | "^tr"(f3/e//d//) "^tr"(e3/d//^c//) | d2 "_D.C."d2 :|
%%begintext align
%% The 1st and 2d Cu. foot it and
%% hands four round .| the same back
%% again :| Gallop down and up
%% cast off .| and Right and Left :|
%%endtext
